X:1
T:Beautiful Star
T:Beautiful Star
T:Frederick Augustus Fillmore
T:Eliza Edmunds Hewitt, 1893 
T:Public Domain Courtesy of the Cyber Hymnal™
T:Public Domain Courtesy of the Cyber Hymnal™
C:Frederick Augustus Fillmore
Z:Public Domain
Z:Courtesy of the Cyber Hymnal™
%%score ( 1 2 ) ( 3 4 )
L:1/8
Q:1/4=78
M:6/8
K:D
V:1 treble 
V:2 treble 
V:3 bass 
V:4 bass 
V:1
 D | [DF][DF][DF] [DG]>[DF][DF] | [CE]>[A,D][A,E] [A,D]2 [FA] | [GB]>B[Ac] [Bd][Ac][GB] | %4
w: 1.~The|wise men of old saw a|beau- ti- ful star, Led|on by its glo- ry they|
w: 2.~The|star of the east was the|her- ald of day, The|light ev- er- last- ing that|
w: 3.~The|star of His Word guards His|peo- ple to- day, To|sweet joy in Je- sus ’tis|
w: 4.~To|those who in dark- ness are|stray- ing a- far, We’ll|show the pure rays of the|
 [FA][DF]D [CE]2 [CE] | [DF]>[D^E][DF] D[D=E][DF] | [DG][DG][DA] [DB]2 [DB] | %7
w: tra- veled a- far; O’er|moun- tain and val- ley ’til|wan- der- ings past, Their|
w: fades not a- way; Its|beams ris- ing high- er, O|hast- en and see, The|
w: lead- ing the way. Then|still let us fol- low and|lov- ing- ly bring Our|
w: beau- ti- ful star. We’ll|tell them of Je- sus, that|at His dear feet, The|
 [Gd]>[Gc][GB] [FA][DF]D | [CE]>[A,D][A,E] [A,D]3 ||"^Refrain" d3 [Gd][Gc][GB] | A3 [FA]3 | %11
w: gifts at the feet of the|Sav- ior they cast.|||
w: Light of the world shines for|you and for me.|Beau- ti- ful beau-|ti- ful|
w: hearts and our off- erings to|Je- sus our king.|||
w: saved of all na- tions shall|joy- ful- ly meet.|||
 F3 [DF][DE]D | A3 [CA]3 | [DF]>[DF][DF] [DF][DE]D | D[DG][DA] [DB]3 | [Gd]>[Gc][GB] [FA][DF]D | %16
w: |||||
w: star of the east|Beau- ti-|ful beau- ti- ful star of|the east Scat- ter|the shad- ows of sin far|
w: |||||
w: |||||
 [CE]>[A,D][A,E] [A,D]3 |] %17
w: |
w: a- way, Lead us|
w: |
w: |
V:2
 D | x6 | x6 | x6 | x2 D x3 | x3 D x2 | x6 | x5 D | x6 || GGG x3 | FFF x3 | DDD x D x | CCD x3 | %13
 x5 D | D x5 | x5 D | x6 |] %17
V:3
 [D,F,] | [D,A,][D,A,][D,A,] [D,B,]>[D,A,][D,A,] | [A,,G,]>[A,,F,][A,,G,] [D,F,]2 [D,D] | %3
w: ~|~ ~ ~ ~ ~ ~|~ ~ ~ ~ ~|
 [G,D]>[G,D][G,D] [G,D][G,D][G,D] | [D,D][D,A,][B,,^G,] [A,,A,]2 [A,,A,] | %5
w: ~ ~ ~ ~ ~ ~|~ ~ ~ ~ ~|
 [D,A,]>[D,^G,][D,A,] [D,F,][D,=G,][=C,A,] | [B,,G,][B,,G,][A,,F,] [G,,G,]2 G, | %7
w: ~ ~ ~ ~ ~ ~|~ ~ ~ ~ ~|
 [G,B,]>[G,C][G,D] [D,D][D,A,][B,,^G,] | [A,,A,]>[A,,F,][A,,G,] [D,F,]3 || %9
w: ~ ~ ~ ~ ~ ~|~ ~ ~ ~|
 [G,B,][G,B,][G,B,] [G,B,][G,C][G,D] | [D,D][D,D][D,D] [D,D]3 | %11
w: Beau \- \- \- \- ti-|ful star ~ ~|
 [D,A,][D,A,][D,A,] [D,A,][D,G,][D,F,] | [A,,A,][A,,E,][A,,F,] [A,,E,]3 | %13
w: Beau \- \- \- \- ti-|ful star * *|
 [D,A,]>[D,A,][D,A,] [D,A,][D,G,][D,F,] | [G,B,][G,B,][G,A,] G,3 | %15
w: ||
 [G,B,]>[G,C][G,D] [D,D][D,A,][B,,^G,] | [A,,A,]>[A,,F,][A,,G,] [D,F,]3 |] %17
w: ||
V:4
 x | x6 | x6 | x6 | x6 | x6 | x5 G, | x6 | x6 || x6 | x6 | x6 | x6 | x6 | x3 G,3 | x6 | x6 |] %17

